examples/neo-place/client/assets/cogwheel-outline.svg

<?xml version="1.0" standalone="no"?>
<!DOCTYPE svg PUBLIC "-//W3C//DTD SVG 1.0//EN" "http://www.w3.org/TR/2001/REC-SVG-20010904/DTD/svg10.dtd">
<svg xmlns="http://www.w3.org/2000/svg" xmlns:xlink="http://www.w3.org/1999/xlink" id="body_1" width="51" height="38">

<g transform="matrix(0.049804688 0 0 0.049479168 0 0)">
	<g>
		<g>
            <path d="M371.49 563.638L484.542 497.784C 489.802 494.721 493.63 489.69 495.182 483.809C 496.737 477.921 495.883 471.66098 492.823 466.404L492.823 466.404L462.054 413.597C 466.843 407.073 471.137 400.482 475.026 393.679C 478.919 386.87997 482.431 379.839 485.632 372.404L485.632 372.404L546.746 372.18298C 552.832 372.162 558.66095 369.719 562.948 365.40198C 567.235 361.08197 569.635 355.23697 569.613 349.14697L569.613 349.14697L569.133 218.31398C 569.109 212.22498 566.669 206.39497 562.349 202.10799C 558.05 197.83899 552.236 195.44598 546.183 195.44598C 546.15295 195.44598 546.121 195.44598 546.094 195.44598L546.094 195.44598L484.912 195.68799C 478.468 181.22598 470.48398 167.54799 461.041 154.775L461.041 154.775L491.45798 101.63199C 497.75198 90.63099 493.93896 76.60699 482.938 70.31599L482.938 70.31599L369.403 5.335C 364.122 2.312 357.858 1.513 351.979 3.104C 346.107 4.702 341.107 8.566 338.087 13.851L338.087 13.851L307.665 67C 291.89902 65.338 276.01202 65.387 260.302 67.144L260.302 67.144L229.506 14.251999C 226.443 8.988998 221.412 5.1609993 215.53099 3.605999C 209.64699 2.0549989 203.383 2.901999 198.12299 5.964999L198.12299 5.964999L85.068 71.823C 74.119 78.202995 70.411 92.252 76.788 103.202995L76.788 103.202995L107.553 156.034C 102.792 162.51799 98.505005 169.11 94.6 175.933C 90.696 182.757 87.183 189.788 84 197.188L84 197.188L22.861 197.423C 10.187 197.472 -0.046 207.785 0 220.456L0 220.456L0.48 351.29C 0.504 357.376 2.943 363.209 7.264 367.496C 11.563 371.765 17.374 374.157 23.43 374.157C 23.458 374.157 23.488 374.157 23.516 374.157L23.516 374.157L84.719 373.928C 91.151 388.38 99.132 402.05902 108.587006 414.84302L108.587006 414.84302L78.174 467.984C 75.151 473.268 74.34901 479.532 75.943 485.407C 77.54 491.27902 81.405 496.27902 86.69 499.303L86.69 499.303L200.225 564.28C 203.821 566.33606 207.738 567.312 211.60501 567.312C 219.56702 567.312 227.30602 563.166 231.54701 555.76L231.54701 555.76L261.96402 502.61102C 277.76303 504.282 293.648 504.23 309.312 502.467L309.312 502.467L340.11102 555.357C 343.17703 560.617 348.20502 564.445 354.08902 566C 359.967 567.552 366.23 566.705 371.49 563.638zM341.129 465.911C 336.227 457.493 326.53 453.096 316.992 454.91702C 296.404 458.85202 274.818 458.91602 253.86401 455.11902C 244.292 453.38403 234.68001 457.86002 229.84901 466.30002L229.84901 466.30002L203.10101 513.04504L129.40701 470.86505L156.15701 424.12405C 160.98901 415.68506 159.97601 405.11804 153.63602 397.75305C 139.65802 381.51404 128.95102 363.15906 121.818016 343.19904C 118.55302 334.06802 109.90002 327.97205 100.208015 327.97205C 100.181015 327.97205 100.15002 327.97205 100.12302 327.97205L100.12302 327.97205L46.298016 328.17105L45.983017 243.23405L99.80202 243.02905C 109.52402 242.98906 118.168015 236.83205 121.37802 227.65506C 125.06802 217.09805 129.34003 207.63606 134.43802 198.73807C 139.53902 189.82407 145.52702 181.35107 152.74902 172.84106C 159.04303 165.42407 159.97403 154.84807 155.08302 146.44507L155.08302 146.44507L128.00203 99.936066L201.38702 57.182064L228.46503 103.67906C 233.35803 112.07906 243.00903 116.50006 252.56003 114.68306C 273.27603 110.77206 294.877 110.70506 315.74902 114.49306C 325.30603 116.246056 334.93802 111.75106 339.76804 103.315056L339.76804 103.315056L366.52103 56.571056L440.21802 98.75006L413.46503 145.49207C 408.63904 153.92906 409.64902 164.49207 415.98602 171.86006C 429.94202 188.08105 440.65503 206.44707 447.82803 226.45006C 451.09903 235.56906 459.74704 241.65205 469.43204 241.65205C 469.46304 241.65205 469.49405 241.65205 469.52405 241.65205L469.52405 241.65205L523.31305 241.43805L523.62805 326.36505L469.84506 326.55704C 460.13306 326.59402 451.49405 332.73904 448.27606 341.90405C 444.53006 352.55804 440.25305 362.03506 435.19406 370.87906C 430.13007 379.72607 424.12708 388.21707 416.83807 396.83707C 410.56708 404.25507 409.64407 414.81506 414.53308 423.20508L414.53308 423.20508L441.61108 469.67706L368.2201 512.4261L341.129 465.911z" stroke="none" fill="#000000" fill-rule="nonzero" />
            <path d="M392.531 346.458C 409.003 317.685 413.277 284.21802 404.578 252.22601C 395.879 220.23401 375.236 193.54102 346.463 177.07501C 327.70203 166.335 306.41302 160.65802 284.901 160.65802C 240.455 160.65802 199.139 184.60202 177.07901 223.14302C 143.085 282.54703 163.75201 358.53302 223.15001 392.52902C 241.914 403.26602 263.202 408.94003 284.71402 408.94003C 329.158 408.943 370.475 385.001 392.531 346.458zM352.696 323.658C 338.794 347.951 312.74103 363.043 284.711 363.043C 271.18298 363.043 257.777 359.463 245.94699 352.694C 208.51399 331.268 195.491 283.38202 216.91399 245.943C 230.81898 221.652 256.87198 206.558 284.901 206.558C 298.42902 206.558 311.833 210.138 323.663 216.913C 341.79898 227.29199 354.805 244.11 360.291 264.272C 365.771 284.435 363.075 305.524 352.696 323.658z" stroke="none" fill="#000000" fill-rule="nonzero" />
		</g>
	</g>
	<g>
	</g>
	<g>
	</g>
	<g>
	</g>
	<g>
	</g>
	<g>
	</g>
	<g>
	</g>
	<g>
	</g>
	<g>
	</g>
	<g>
	</g>
	<g>
	</g>
	<g>
	</g>
	<g>
	</g>
	<g>
	</g>
	<g>
	</g>
	<g>
	</g>
</g>
</svg>

<?xml version="1.0" encoding="iso-8859-1"?>
<!-- Generator: Adobe Illustrator 16.0.0, SVG Export Plug-In . SVG Version: 6.00 Build 0)  -->
<!DOCTYPE svg PUBLIC "-//W3C//DTD SVG 1.1//EN" "http://www.w3.org/Graphics/SVG/1.1/DTD/svg11.dtd">
<svg version="1.1" id="Capa_1" xmlns="http://www.w3.org/2000/svg" xmlns:xlink="http://www.w3.org/1999/xlink" x="0px" y="0px"
	 width="569.613px" height="569.614px" viewBox="0 0 569.613 569.614" style="enable-background:new 0 0 569.613 569.614;"
	 xml:space="preserve">
<g>
	<g>
		<path d="M371.49,563.638l113.052-65.854c5.26-3.063,9.088-8.094,10.64-13.975c1.555-5.888,0.701-12.148-2.359-17.405
			l-30.769-52.807c4.789-6.524,9.083-13.115,12.972-19.918c3.893-6.799,7.405-13.84,10.606-21.275l61.114-0.221
			c6.086-0.021,11.915-2.464,16.202-6.781c4.287-4.32,6.687-10.165,6.665-16.255l-0.48-130.833
			c-0.024-6.089-2.464-11.919-6.784-16.206c-4.299-4.269-10.113-6.662-16.166-6.662c-0.03,0-0.062,0-0.089,0l-61.182,0.242
			c-6.444-14.462-14.428-28.14-23.871-40.913l30.417-53.143c6.294-11.001,2.481-25.025-8.52-31.316L369.403,5.335
			c-5.281-3.023-11.545-3.822-17.424-2.231c-5.872,1.598-10.872,5.462-13.892,10.747L307.665,67
			c-15.766-1.662-31.653-1.613-47.363,0.144l-30.796-52.892c-3.063-5.263-8.094-9.091-13.975-10.646
			c-5.884-1.551-12.148-0.704-17.408,2.359L85.068,71.823c-10.949,6.38-14.657,20.429-8.28,31.38l30.765,52.831
			c-4.761,6.484-9.048,13.076-12.953,19.899c-3.904,6.824-7.417,13.855-10.6,21.255l-61.139,0.235
			C10.187,197.472-0.046,207.785,0,220.456L0.48,351.29c0.024,6.086,2.463,11.919,6.784,16.206
			c4.299,4.269,10.11,6.661,16.166,6.661c0.028,0,0.058,0,0.086,0l61.203-0.229c6.432,14.452,14.413,28.131,23.868,40.915
			l-30.413,53.141c-3.023,5.284-3.825,11.548-2.231,17.423c1.597,5.872,5.462,10.872,10.747,13.896l113.535,64.977
			c3.596,2.056,7.513,3.032,11.38,3.032c7.962,0,15.701-4.146,19.942-11.552l30.417-53.149c15.799,1.671,31.684,1.619,47.348-0.144
			l30.799,52.89c3.066,5.26,8.094,9.088,13.978,10.643C359.967,567.552,366.23,566.705,371.49,563.638z M341.129,465.911
			c-4.902-8.418-14.599-12.815-24.137-10.994c-20.588,3.935-42.174,3.999-63.128,0.202c-9.572-1.735-19.184,2.741-24.015,11.181
			l-26.748,46.745l-73.694-42.18l26.75-46.741c4.832-8.439,3.819-19.006-2.521-26.371c-13.978-16.239-24.685-34.594-31.818-54.554
			c-3.265-9.131-11.918-15.227-21.61-15.227c-0.027,0-0.058,0-0.085,0l-53.825,0.199l-0.315-84.937l53.819-0.205
			c9.722-0.04,18.366-6.197,21.576-15.374c3.69-10.557,7.962-20.019,13.06-28.917c5.101-8.914,11.089-17.387,18.311-25.897
			c6.294-7.417,7.225-17.993,2.334-26.396l-27.081-46.509l73.385-42.754l27.078,46.497c4.893,8.4,14.544,12.821,24.095,11.004
			c20.716-3.911,42.317-3.978,63.189-0.19c9.557,1.753,19.189-2.742,24.019-11.178l26.753-46.744l73.697,42.179l-26.753,46.742
			c-4.826,8.437-3.816,19,2.521,26.368c13.956,16.221,24.669,34.587,31.842,54.59c3.271,9.119,11.919,15.202,21.604,15.202
			c0.031,0,0.062,0,0.092,0l53.789-0.214l0.315,84.927l-53.783,0.192c-9.712,0.037-18.351,6.182-21.569,15.347
			c-3.746,10.654-8.023,20.131-13.082,28.975c-5.064,8.847-11.067,17.338-18.356,25.958c-6.271,7.418-7.194,17.978-2.305,26.368
			l27.078,46.472l-73.391,42.749L341.129,465.911z"/>
		<path d="M392.531,346.458c16.472-28.773,20.746-62.24,12.047-94.232s-29.342-58.685-58.115-75.151
			c-18.761-10.74-40.05-16.417-61.562-16.417c-44.446,0-85.762,23.944-107.822,62.485c-33.994,59.404-13.327,135.39,46.071,169.386
			c18.764,10.737,40.052,16.411,61.564,16.411C329.158,408.943,370.475,385.001,392.531,346.458z M352.696,323.658
			c-13.902,24.293-39.955,39.385-67.985,39.385c-13.528,0-26.934-3.58-38.764-10.349c-37.433-21.426-50.456-69.312-29.033-106.751
			c13.905-24.291,39.958-39.385,67.987-39.385c13.528,0,26.932,3.58,38.762,10.355c18.136,10.379,31.142,27.197,36.628,47.359
			C365.771,284.435,363.075,305.524,352.696,323.658z"/>
	</g>
</g>
<g>
</g>
<g>
</g>
<g>
</g>
<g>
</g>
<g>
</g>
<g>
</g>
<g>
</g>
<g>
</g>
<g>
</g>
<g>
</g>
<g>
</g>
<g>
</g>
<g>
</g>
<g>
</g>
<g>
</g>
</svg>
